src/assets/icon-facebook.svg

<svg width="44" height="42" viewBox="0 0 44 42" fill="none" xmlns="http://www.w3.org/2000/svg">
<rect width="44" height="42" rx="21" fill="#FBFCFE"/>
<path d="M35 21.0326C35 13.8386 29.176 8 22 8C14.824 8 9 13.8386 9 21.0326C9 27.3403 13.472 32.5925 19.4 33.8045V24.9424H16.8V21.0326H19.4V17.7744C19.4 15.2591 21.441 13.213 23.95 13.213H27.2V17.1228H24.6C23.885 17.1228 23.3 17.7093 23.3 18.4261V21.0326H27.2V24.9424H23.3V34C29.865 33.3484 35 27.7965 35 21.0326Z" fill="#134386"/>
</svg>

<svg xmlns="http://www.w3.org/2000/svg" width="44" height="42" fill="none"><rect width="44" height="42" fill="#FBFCFE" rx="21"/><path fill="#134386" d="M35 21.033C35 13.839 29.176 8 22 8S9 13.839 9 21.033c0 6.307 4.472 11.56 10.4 12.771v-8.862h-2.6v-3.91h2.6v-3.258c0-2.515 2.041-4.561 4.55-4.561h3.25v3.91h-2.6c-.715 0-1.3.586-1.3 1.303v2.607h3.9v3.91h-3.9V34c6.565-.652 11.7-6.203 11.7-12.967Z"/></svg>
